X:1
T:Les Sept Ivresses
T:L'Amour
T:Les Sept Ivresses
T:1. L'Amour
T:Augusta Mary Anne Holmès
T:Augusta Mary Anne Holmès
T:OpenScore (CC0)
T:OpenScore (CC0)
T:OpenScore (CC0)
T:OpenScore (CC0)
C:Augusta Mary Anne Holmès
Z:Augusta Mary Anne Holmès
Z:OpenScore (CC0)
%%score 1 { ( 2 5 6 ) | ( 3 4 ) }
L:1/8
Q:1/4=52
M:3/4
K:G
V:1 treble nm="Chant\nVoice"
V:2 treble nm="Piano"
V:5 treble 
V:6 treble 
V:3 treble 
V:4 treble 
V:1
"^Andante" z6 | z6 | z6 | z6 |!p! (3(BA) G!<(! B2 B B | (3(dc)!<)! B d2- d2 |!pp! (3B A G B4- | %7
w: ||||Dans * la ver- te fo-|rêt * mou- illé- e|Mar- cher à deux,|
 B2 z2 z2 |!f! (3c B A c3 c |!<(! (3(ed) c e2-!<)! e z |!mf! (3d c B d4- |!>(! d2- d!>)! z z2 | %12
w: _|Se sen- tir l'âme en-|so- * lei- llé- e,|Etre a- mou- reux!|_ _|
!p! (3(BAG)!<(! B2 B B | (3d c B d2!<)! d z |!mf! (3e d ^c e2- e!pp! c | b2- (3b a g (3B ^c f | %16
w: Trem- * * bler par- ce|qu'une * main  frê- le|Vous a frôl- é, _ Ou|qu'un _ voil- e fin  comme  une|
 (3e G d (3:2:2^c2 A =c2- | c2- c2 z2 | z2 z2 z!p! d | d2- d/!<(! d/ d/ d/ d3/2 d/!<)! | %20
w: ai- le S'est en- vo- lé!|_ _|Pleu-|\- rer _ pour que l'on vous sou-|
!mf! (=f2 (3=F) z!pp! F (3:2:2c2 c | d2- d z (=f3/2 _A/) | =A2-!<(! (3A A A (3:2:2_A2!<)! =f | %23
w: ri- e, Pleu- rer en-|\- cor! _ Con- ser-|ver _ u- ne fleur flé-|
!>(! (=f2 c2!>)! d2) |!p! _B4 A G | c4- c z | z6 | %27
w: tri- * e|Comme un tré-|sor! _||
!f!"^agitato"[Q:1/4=62]"^T" _g2- g!>(! =f/ _e/ _d/ c/ d/ e/!>)! | %28
w: Ah! _ dé- si- rer cel- le qu'on|
!p! _B/ A/ B/ c/ _G/ =F/!<(! _E/ G/ A/ =G/ ^F/ A/ ||[M:4/4] (c/_B/ A/) c/!<)! _e2 _g2 =f z || %30
w: aime E- per- du- ment, Et pris de peur n'o- ser voir|mê- * me Son pied char- mant!|
[M:3/4]!f![Q:1/4=58]"^T" _a2- a g/ =f/ _e/ d/ e/ f/ | (c/B/) c/ d/ _A A G z/ =F/ | %32
w: Er- * rer le soir de- vant sa|por- * te, Le coeur en feu! Etre|
!<(! (_E/G/) z/ G/ c z/ c/ _e!<)! z/ e/ |!f![Q:1/4=52]"^a Tempo"[Q:1/4=52]"_a Tempo" (g6 | %34
w: hum- ble, ab- surde, en- fant, n'im-|\- por-|
 G2) z"^rall.         -             -"[Q:1/4=48]"^T" G[Q:1/4=44]"^T" F[Q:1/4=40]"^T" G | %35
w: te! Se sen- tir|
 d6-[Q:1/4=52]"^a Tempo"[Q:1/4=52]"_a Tempo" |[Q:1/4=50]"^T" d4-[Q:1/4=46]"^T" d z[Q:1/4=48]"^T" | %37
w: dieu!|_ _|
!p! (3BA G B2 B B | (3dc B d2 d2 | (3e d ^c e2- e c/ c/ |!pp! b2- (3b a g (3B^c f | %41
w: De- * ve- nir cette heu-|reu- * se proi- e,|Fut\-ce  un seul jour, _ N'est\- ce|pas _ la su- prê- * me|
 (3eG d (3^c z!pp! A =c2- | c2 z2!p! (3:2:2d2 d | g6- | g2 G G (3GF G |!<(! (d6!<)! | e4) z!mf! e | %47
w: joie, _ A- mour, a- mour!|_ N'est- ce|pas|_ la su- prê- * me|joi-|\- e, A-|
 f4!p! d2- |!<(! d4- dg!<)! |!>(! g6-!>)! | g2 z2 !fermata!z2 |] %51
w: mour! a-||mour!|_|
V:2
 z!pp! (b2 g- (3gfB |"_dim." e d2) (B (3AGD | E2 D2 B,2 | G,)!pp! [G,B,]2 [G,B,]2 [G,B,]- | %4
 [G,B,]!<(! [GB]2 [GB]2 [GB]- | [GB]!<)! [Bd]2 [Bd]2 [Bd] | z!pp! (b2 g- (3gfB | %7
!>(! e d2) (d (3AG!>)!D |!p! C) [CE]2 [CE]2 [CE]- |!<(! [CE] [EG]2 [GA]2 [Ac]!<)! | %10
!mf! [Fc] (c'2 b- (3bac |!>(! gf- (3fF-e dc)!>)! |!pp! [GB] [GB]2 [GB]2 [GB] | (=f2-!<(! f ^f2 g- | %14
 g ^g2 a2 ^a-!<)! |"_cresc." a) b2 =c'2 ^c'- | (3:2:2^c' d'2 x ^d'!p! e'2- | %17
 (3e'(d'!>(!c' (3efb (3ac!>)!g | (3:2:2f2 A d2-) d2 |!p! (3(_BA!<(!G B2- (3BA!<)!B | %20
!mf! (3!arpeggio!dc_B =f2)!pp! (3!arpeggio!_eag | (3dc_B d_A- AA |"_crescendo" (3(=fed a2 _a2) | %23
 (3=ag=f c' ^c'2 d'- |!<(! d' _e'2 =e'2!<)! g' |!p! (_g'2- (3g'a_d' (3c'_e_b | %26
!>(! a _g2 =f_e!>)!_d) |"^agitato" [_GAc]!p! [GAc]2 [GAc]2 [GAc]- | [_GAc] [GAc]2 [GAc]2 [GAc]- || %29
[M:4/4]!<(! [_GAc] [GAc]2!<)! [Ac_e]2!f!!>(! ([c-e-_g]2!>)! [ce=f]/) z/ || %30
[M:3/4] [Bd_a]!p! [_ABd]2 [ABd]2 [ABd]- | [_ABd] [ABd]2 [ABd]2 [GBd] | %32
 [Gc_e]!<(! [Gce]2 [Gce]2!<)! [Gce] |!f!{/G} (_f2- f_e/_d/ G/^F/G/_B/ | %34
"_dim." =E/^D/E/G/ ^C/^B,/"_rall.         -             -"C/E/ _B,/A,/B,/C/ | %35
 [F,=C]) c'2 b-!p! (3bac |"_rall." (g!>(!f- (3fF-e d!>)!c) |!p! [GB] [GB]2 [GB]2 [GB] | %38
!<(! z B4-!<)! B |"_dim." g ^g2 a2 _b- |!pp! _b =b2 =c'2 ^c'- | c' d'2 ^d'!p! e'2- | %42
 (3e'd'c' (3efb (3acd |!pp!{G_B} (=f2- (3f_e_d (3=FGc | (3_B_D_A G4) |!p! (3=BAG B4 | %46
"_cresc." (3cBA c4 | (3d!f!cB!f! d c3- | c6 |!pp! [GB]4 z2 |!ppp! [gb]4 !fermata!z2 |] %51
V:3
 z!ped! (B2 G- (3GFB,!ped-up! |!ped! E D2) (B,!ped-up![K:bass] (3A,G,D, | E,2 D,2 B,,2 | %3
 G,,) [G,,D,]2 [G,,D,]2 [G,,D,]- | [G,,D,] [G,D]2 [G,D]2 [G,D] | z [DG]2 [DG]2 [DG] | %6
 [G,,D,][K:treble]!ped! B2 G-!ped-up! (3GFB, |[K:bass] E D2 (B, (3A,G,D, | %8
 [G,,E,]) [G,A,]2 [G,A,]2 [G,A,] | [G,,E,] [A,C]2 [CE]2 [EG] | %10
!ped! [D,,D,]2- [D,,D,]!ped-up![K:treble] B- (3BAD | GF- (3FA,E D2 | %12
[K:bass] z [G,D]2 [G,D]2 [G,D] |!ped! z [G,D=F]2 [G,DF]2!ped-up! [G,DF] | %14
 z [A,^CG]2 [G,CG]2 [G,CG] |!ped! z [A,^CG]2 [A,CG]2!ped-up! [A,CG]- | %16
 (3:2:2[A,^CG] [A,CG]2 x [A,CG]!ped! z [A,DF]- | [A,DF] [A,DF]2 [A,DF]2 [A,DF]- | %18
 [A,DF] [A,DF]2 [A,DF]2 [A,DF]!ped-up! | z [G,_B,D]2 [G,B,D]2 [G,B,D] | %20
 z [=F,_B,D]2 [F,B,D] z [F,C] | z [=F,_B,D]2 [F,B,D]2 [F,B,D] | z [A,D=F]2 [A,DF]2 [_B,DF] | %23
 z [C=FA]2 [CFA]2 [CFA] | z [CG_B]2 [CGB]2 [CEB] | =F,[K:treble] [C_EA]2 [CEA]2 [CEA]- | %26
 [C_EA] [CEA]2 [CEA]2 [CEA] |[K:bass] [=F,,=F,] [C_E]2 [CE]2 [CE]- | [C_E] [CE]2 [CE]2 [CE]- || %29
[M:4/4] [C_E] [CE]2 [E_G]2[K:treble] ([_GA-]2 [=FA]/) z/ || %30
[M:3/4][K:bass]!ped! [G,,G,]4- [G,,G,]!ped-up! z | [D=F] [DF]2 [DF]2 [DF] | %32
 z [_E,G,C]2 [E,G,C]2 [E,G,C] |!ped! z [_E,G,_D]2 [E,G,D]2 [E,G,D]- | %34
 [_E,G,_D] [E,G,D]2 [E,G,]2 [E,G,]!ped-up! | %35
!ped! [D,,D,] !arpeggio![A,DF]2[K:treble] B- (3BAC!ped-up! | GF- (3FA,E D2 | %37
[K:bass] z [G,D]2 [G,D]2 [G,D] | z [G,D=F]2 [G,DF]2 [G,DF] | z [A,^CG]2 [A,CG]2 [A,CG]- | %40
 [A,^CG] [A,CG]2 [A,CG]2 [A,CG]- | [A,^CG] [A,CG]2 [A,CG] z [A,DF]- | %42
 [A,DF] [A,DF]2 [A,DF]2 [A,DF] |!ped! z [_E,_B,_D]2 [E,B,D]2 [E,B,D]- | %44
 [_E,_B,_D] [E,B,]2 [E,B,]2!ped-up! [E,B,] | z!<(! [D,B,]2 [D,B,]2 [D,B,]!<)! | %46
 z [D,A,]2 [D,A,]2 [D,A,] | z [D,A,]2!ped! [D,A,]3- | [D,A,]6!ped-up! | %49
!ped! !arpeggio![G,,D,B,]4 z2!ped-up! |[K:treble]!ped! [G,DB]4 !fermata!z2!ped-up! |] %51
V:4
 x6 | x4[K:bass] x2 | x6 | x6 | x6 | [G,,D,]4- [G,,D,] z | x[K:treble] !arpeggio![DG]2 x3 | %7
[K:bass] x6 | x6 | x6 | (3:2:2z [A,DF]2- [A,DF][K:treble] x3 | x6 |[K:bass] [G,,D,]4- [G,,D,] z | %13
 G,,4- G,, z | A,,4- A,, z | A,,4- A,, z | x4 [D,,D,]2- | [D,,D,] x5 | x6 | G,,4- G,, z | %20
 =F,,4- F,, z | _B,,4- B,, z | A,,2 z2 z2 | C,4- C, z | C,4- C, z | x[K:treble] x5 | x6 | %27
[K:bass] x6 | x6 ||[M:4/4] x5[K:treble] x3 ||[M:3/4][K:bass] z [D=F]2 [DF]2 [DF]- | x6 | %32
 [_E,,_E,]4- [E,,E,] z | [_E,,_E,]4- [E,,E,] z | x6 | x3[K:treble] x3 | x6 | %37
[K:bass] [G,,D,]4- [G,,D,] z | G,,4- G,, z | A,,4- A,, z | x6 | x4 [D,,D,]2- | [D,,D,]2 z2 z2 | %43
 _E,,6- | E,,4- E,, z | D,,4- D,, z | D,,4- D,, z | D,,4- D,, z | x4 x x | x6 |[K:treble] x6 |] %51
V:5
 x6 | x6 | x6 | x6 | x6 | x6 | x6 | x6 | x6 | x6 | x [cf]- [cf] z x2 | x2 (3:2:2z F2 x2 | x6 | %13
 (3:2:2z B2- B2- B z | x6 | x6 | x4 z [f=c']- | [fc'] x5 | x2 z2 c2 | x6 | =F2- F2 A2 | %21
 =f2- f z x2 | =A2- A z z2 | x6 | x6 | x6 | x6 | x6 | x6 ||[M:4/4] x8 ||[M:3/4] x6 | x6 | x6 | x6 | %34
 x6 | x [cf]2- [cf] x2 | x2 (3:2:2z F2 x2 | x6 | (3:2:1=f2 x4/3 (3:2:1^f2 x g- | x6 | x6 | %41
 x4 z [f=c']- | [fc'] x5 | x6 | x2 z _D2 D | =D2- D G2 G- | G2- G G2 G | F2- F F3- | F6 | x6 | %50
 x6 |] %51
V:6
 x6 | x6 | x6 | x6 | x6 | x6 | x6 | x6 | x6 | x6 | x6 | x4 F2 | x6 | x6 | x6 | x6 | x6 | x6 | x6 | %19
 x6 | x6 | x6 | x6 | x6 | x6 | x6 | x6 | x6 | x6 ||[M:4/4] x8 ||[M:3/4] x6 | x6 | x6 | x6 | x6 | %35
 x6 | x4 F2 | x6 | x6 | x6 | x6 | x6 | x6 | x6 | x6 | x6 | x6 | x6 | x6 | x6 | x6 |] %51

